X:118
%%etbk:tnset id:42,pos:1,rep:3
%%etbk:site1 http://www.thesession.org/tunes/display/901
T: Speed The Plough
Z: Piano Box Version by Martin Fleischmann (www.boxplayer.ch)
M: 4/4
L: 1/8
R: reel
K: Dmaj
!4!d3!1!A !2!B!1!A!2!F!5!B |!4!A!2!FFF !1!E!2!F!1!D!2!E | !3!F2!5!A!3!F !1!G2!3!B!1!G | !1!A!2!B!3!d!4!e !3!fgfe|
!1!!4!d3!1!A BAFB | !4!AFFF EFDE | !3!F2AF !1!G2BG|1 !1!A!2!B!3!d!4!e !5!f!3!dd2:|2 !1!ABd!4!e !5!f!3!d!1!d2||
|:!3!f2!5!af afdf | !4!ge!3!fd !2!e!1!d!2!B!1!d | !3!f2af afdf | !1!ABd!4!e !3!f!2!ee2 | 
!3!f2af afdf | !4!gefd !2!e!1!d!2!B!1!A | !3!F2AF !1!G2BG | [1 !1!ABd!4!e !3!fdd2:|2 !1!ABd!4!e !5!f!3!dd2||

